X: 593
T: Rättvikarnas gånglåt
O: Dalarna
R: Gånglåt
S: efter Anders Sparf
Z: Håkan Lidén, 2008-10-01
N: efter en inspelning med Kebnekajse(!), hittad på [[http://www.youtube.com/watch?v=qtthMqAYz_4|YouTube]]
D: Kebnekaise - Kebnekaise 2 (1973)
Q: 1/4=72
M: 2/4
L: 1/8
K: D
"D"FA/F/ "G"GB/G/ | "D"Ad FG | AB/A/ "A7"GA,/C/ | "D"ED F/E/D/E/ | FA/F/ "G"GB/G/ | "D"Ad FG | AB/A/ "A7"GA,/C/ |
|1 "D"ED D2 :|2 "D"ED D>F |: "D"A/B/A/F/ Ad | f>e dc | "G"B>A G/A/G/F/ | G3 c/d/ | "A"e/f/e/d/ c/d/c/B/ | 
A/B/A/F/ "G"GB/A/ | "D"FD D/E/D/C/ | D2 FG | A/B/A/F/ Ad | f>e dc | "G"Bg g/f/g/a/ | b3 b |
"D"a/b/a/f/ "G"g/a/g/e/ | "D"f/g/f/d/ "Em"e/f/e/d/ | "A"c/d/c/A/ Bc |1 "D"d2 FG :|2 "D"d4 |: "D"d>f ag | f>g fe/d/ | 
"A"c/d/e/f/ gf | e3 d | c/d/e/f/ g/a/g/f/ | e/f/e/d/ c/d/c/B/ | Ac/B/ "G"GB/A/ | "D"F4 | d>f ag | 
f>g fe/d/ | "A"c/d/e/f/ gf | e3 d | c/d/e/f/ g/a/g/f/ | e/f/e/d/ c/d/c/B/ | A2 A/c/e/c/ | "D"d4 :|]
(:musicend:)

(:music:)
